X: 25691
T: Martin Wynne's
R: reel
M: 4/4
K: Gmajor
|:dged BdAc|BGAG EAA2|BGG2 cdeg|fgaf gede|
dged BdAc|BGAG EAA2|BGG2 cdeg|1 fedB G2 (3ABc:|2 fgaf g2 (3Bcd]||
|:g2 gf gfeB|dged BGBd|g2 gf gfeB|dega bggf|
gbaf gfeB|dged BGBd|g2 gf gfed|1 fgaf g2 (3Bcd:|2 ceaf g4||

